X:1
T:Arise and Hail the Joyful Day
M:C|
L:1/4
V:1 clef=treble
V:2 clef=treble
V:3 clef=treble
V:4 clef=bass
%%staves [1 2 3 4]
K:G
%
[V:1] G2 F G | A2 B2 | A3 A | B3 d | d2 c2 | (c>B) (A>G) |
w: A- rise and hail the joy- ful day. Of your Re- deem_ er's_
%
[V:2] D2 D D | C2 D2 | E2 F2 | G3 F | D2 E2 | E2 C2 |
w: A- rise and hail the joy- ful day. Of your Re- deem- er's
%
[V:3] B2 A B | c2 (B G) | (A/B/c/A/ G) F | G3A | B2 G2 | (c>B) (A>G) |
w: A- rise and hail the_ joy____ ful day. Of your  Re- deem_ er's_
%
[V:4] G,,2 D, D, | F,2 G,2 | C,2 D,2 | G,,3 D, | (G,>F,) (E,>D,) | A,2 A,,2 |
w: A- rise and hail the joy- ful day. Of your_ Re_ deem- er's
%
[V:1] F4 |: G2 G G | G G F E | F3 z | z4 | z4 |
w: birth; Lift up your voi- ces to the sky;
%
[V:2] D4 |: D2 D D | D E F G | F3 z | z4 | z4 |
w: birth; Lift up your voi- ces to the sky;
%
[V:3] A4 |: (d c) B A | B c B/A/ G | A3 B/c/ | d d d e | d3 d/c/ |
w: birth; Lift_ up your voi- ces to_ the sky; A_ Sav- iour born on earth, A_
%
[V:4] D,4 |: G,2 G, D, | G,, A,, B,, C, | D,4- | D,3 E,/F,/ | G, G, G, B,, |
w: birth; Lift up your voi- ces to the sky;_  A_ Sav- iour born on
%
[V:1] z2 z G | G G G G | G3 G | E E D D | D4 :|
w: A Sav- iour born on earth, A Sav- iour born on earth.
%
[V:2] E E E D | E3 G, | B, B, D D  | C2 D D  | B,4 :|
w: Sav- iour born on earth, A Sav- iour born on earth, born on earth.
%
[V:3] B B B B | c2 (B c) | (d/e/d/c/ B) G | G2 F2 | G4 :|
w: Sav- iour born on earth, A_ Sav____ iour born on earth.
%
[V:4] E,3 D, | C, C, C, C, | B,,2 G,,2 | C,2 D,2 | G,,4 :|
w: earth, A Sav- iour born, A Sav- iour born on earth.
%
%%newpage
%
W: 1. Arise and hail the joyful day
W:    Of your Redeemer's birth;
W:    Lift up you voices to the sky;
W:    A Saviour born on earth.
W:
W: 2. Behold and hear what news we bring
W:    To lost mankind this day;
W:    Sweet hallelujah let us sing,
W:    And join the heav'nly lay.
W:
W: 3. He comes, poor sinners to redeem,
W:    Who so affronted God;
W:    To heal their souls from death and sin,
W:    And save them with his blood.
W:
W: 4. Then let us join in choirs above
W:    To celebrate His name,
W:    In singing of His wonderous love,
W:    And spreading forth his fame.

